X:1
T:Come, Oh, Come to Me
T:James Milton Black
T:Come, Oh, Come to Me
T:Public Domain
T:Public Domain
T:Public Domain
C:James Milton Black
Z:Public Domain
%%score ( 1 2 ) ( 3 4 )
L:1/8
M:4/4
K:Eb
V:1 treble 
V:2 treble 
V:3 bass 
V:4 bass 
V:1
 E>[EF] [EG]>[FA] [GB]>[Ac] [GB]>[FA] | [EG]2 [DF]2 E4 | [Ec]>[Ec] [EB]>[EB] [DA]>[DA] [EG]>[EG] | %3
w: 1.~Wea- ry bur- dened wand- ’rer, There is|for thee, At|feet of Je- sus, In His love so|
w: 2.~Bring Him all thy bur- dens, All thy|and sin, Mer-|door is o- pen, Rise and en- ter|
w: 3.~Lin- ger then no long- er, Come just|to Him; Ere|sha- dows ga- ther, And thy light grows|
w: 4.~He will bid thee wel- come, At the|èd cross, Turn|joy thy mourn- ing, Turn to gold thy|
 [DF]2 [Ac]2 [GB]4 | [EG]>[EG] [EG]>[FA] [GB]>[GB] [GB]>[Ge] | [Fd]2 [Fd]2 [Fd]4 | %6
w: free; List- en|to His mes- sage, Words for- ev- er|blest, Oh, thou|
w: in. Je- sus|there is wait- ing, Pa- tient- ly for|thee, Hear Him|
w: dim. Thou hast|long been wait- ing For some bet- ter|time, But to-|
w: dross. He will|lead thee gent- ly, All a- long the|way, In the|
 [Ge]>[Ge] [Ge]>[Ac] [GB]>[GB] [GB]>[FA] | [EG]2 [DF]2 [B,E]4 ||"^Refrain" (G>G G>G B>)G F>G | %9
w: hea- vy la- den, “Come to Me and|rest.” * *||
w: gent- ly call- ing, “Come, oh, come to|Me.” “Come, oh|come * * * * to Me,” “Come,|
w: day He’s call- ing, Come and claim Him|thine. * *||
w: path that shin- eth, Un- to per- fect|day. * *||
 (E>E E>E E2) z2 | (E>E E>E [Ec]>)[EB] [DA]>[EG] | (D>D D>D D2) z2 | [EG]4- [EG]>[EG] [DA]>[EB] | %13
w: ||||
w: to * * * *|Je- * * * * sus now is|ing, * * * *|ing * “Come, oh come|
w: ||||
w: ||||
 [Ec]2 [Ed]2 [Ee]2 [Ac]2 | [GB]4- [GB]>[EG] [DF]>[DG] | (B,2 C>C B,2) z2 |] %16
w: |||
w: to Me.” * *|||
w: |||
w: |||
V:2
 E3/2 x13/2 | x4 E4 | x8 | x8 | x8 | x8 | x8 | x8 || B4- G2 x2 | E6 x2 | c4- x4 | F6 x2 | x8 | x8 | %14
w: rest|the|||||||||||||
w: guilt|cy’s|||||||oh come|Me,”|wait-|call-|||
w: now|the|||||||||||||
w: bless-|to|||||||||||||
 x8 | E6 x2 |] %16
w: ||
w: ||
w: ||
w: ||
V:3
 [E,G,]>[E,A,] [E,B,]>[E,B,] [E,E]>[E,E] [E,E]>[A,,C] | [B,,B,]2 [B,,A,]2 [E,G,]4 | %2
w: ~ ~ ~ ~ ~ ~ ~ ~|~ ~ ~|
 A,>A, [G,B,]>[G,B,] [F,B,]>[F,B,] [E,B,]>[E,B,] | [B,,B,]2 [B,,D]2 [E,E]4 | %4
w: ~ ~ ~ ~ ~ ~ ~ ~|~ ~ ~|
 [E,B,]>[E,B,] [E,B,]>[E,B,] [E,E]>[E,E] [E,E]>[E,B,] | [B,,B,]2 [B,,B,]2 [B,,B,]4 | %6
w: ~ ~ ~ ~ ~ ~ ~ ~|~ ~ ~|
 [E,B,]>[E,B,] [E,B,]>[E,E] [E,E]>[E,E] [E,E]>[A,,C] | [B,,B,]2 [B,,B,]2 [E,G,]4 || %8
w: ~ ~ ~ ~ ~ ~ ~ ~|~ “Come, oh,|
 [E,E]>[E,E] [E,E]>[E,E] [E,E]2 z2 | [E,G,]>[E,G,] [E,G,]>[E,G,] [E,G,]2 z2 | %10
w: come to Me,” “Come, oh,|come to Me,” “Come, oh,|
 A,>A, A,>A, A,>[G,B,] [F,B,]>[E,B,] | [B,,B,]>[B,,B,] [B,,B,]>[B,,B,] [B,,B,]2 z2 | %12
w: come to Me, poor sin- ner, Come, oh,|now is wait- ing, ~|
 [E,B,]2 [E,B,]2 [E,B,]>[E,B,] [F,B,]>[G,B,] | A,2 [A,B,]2 [A,C]2 [A,E]2 | %14
w: ~ ~ ~ ~ ~ ~|~ “come to Me,”|
 [B,E]4- [B,E]>B, [B,,A,]>[B,,B,] | G,2 A,>A, G,2 z2 |] %16
w: ||
V:4
 x8 | x8 | A,>A, x6 | x8 | x8 | x8 | x8 | x8 || x8 | x8 | A,>A, A,>A, A,3/2 x5/2 | x8 | x8 | %13
w: ||~ ~||||||||come to Me,” Je- sus|||
 A,2 x6 | x11/2 B,/ x2 | E,6 x2 |] %16
w: |||

